<?xml version="1.0" encoding="UTF-8"?>
<map version="1.10" tiledversion="1.10.2" orientation="orthogonal" renderorder="right-down" width="15" height="13" tilewidth="16" tileheight="16" infinite="0" nextlayerid="6" nextobjectid="4">
 <tileset firstgid="1" source="interior-tileset.tsx"/>
 <layer id="1" name="ground" width="15" height="13">
  <data encoding="csv">
227,227,227,227,227,227,227,227,227,227,227,227,227,227,227,
227,386,386,386,386,386,386,386,386,386,386,386,386,386,227,
227,386,386,386,386,386,386,386,386,386,386,386,386,386,227,
227,386,386,386,386,386,386,386,386,386,386,386,386,386,227,
227,386,386,386,386,386,386,386,386,386,386,386,386,386,227,
227,386,386,386,386,386,386,386,386,386,386,386,386,386,227,
227,386,386,386,386,386,386,386,386,386,386,386,386,386,227,
227,386,386,386,386,386,386,386,386,386,386,386,386,386,227,
227,386,386,386,386,386,386,386,386,386,386,386,386,386,227,
227,386,386,386,386,386,386,386,386,386,386,386,386,386,227,
227,386,386,386,386,386,386,386,386,386,386,386,386,386,227,
227,227,227,227,227,227,227,386,386,227,227,227,227,227,227,
227,227,227,227,227,227,227,227,227,227,227,227,227,227,227
</data>
 </layer>
 <layer id="2" name="decor" width="15" height="13">
  <data encoding="csv">
0,0,0,0,0,0,0,0,0,0,0,0,0,0,0,
0,0,0,0,0,0,0,0,0,0,0,0,0,0,0,
0,0,0,0,0,0,0,0,0,0,0,0,0,0,0,
0,0,0,0,0,0,0,0,0,0,0,0,0,0,0,
0,0,0,0,0,0,0,0,0,0,0,0,0,0,0,
0,0,0,0,0,0,0,0,0,0,0,0,0,0,0,
0,0,0,0,0,0,0,0,0,0,0,0,0,0,0,
0,0,0,0,0,0,161,162,163,0,0,0,0,0,0,
0,0,0,0,0,0,209,210,211,0,0,0,0,0,0,
0,0,0,0,0,0,257,258,259,0,0,0,0,0,0,
0,0,0,0,0,0,0,0,0,0,0,0,0,0,0,
0,0,0,0,0,0,0,149,150,0,0,0,0,0,0,
0,0,0,0,0,0,0,0,0,0,0,0,0,0,0
</data>
 </layer>
 <layer id="3" name="stuff" class="entities" width="15" height="13">
  <data encoding="csv">
530,531,531,531,531,531,531,531,531,531,531,531,531,531,532,
625,5,5,5,5,5,5,5,5,5,5,5,5,5,629,
625,53,53,53,53,53,53,53,53,53,53,53,53,53,629,
625,0,260,261,0,0,0,0,0,0,0,262,263,0,629,
625,0,308,309,0,0,205,206,207,0,0,310,311,0,629,
625,0,0,0,0,0,253,254,255,0,0,0,0,0,629,
625,0,0,0,0,0,0,0,0,0,0,0,0,0,629,
625,0,0,0,0,0,0,0,0,0,0,0,0,0,629,
625,0,0,0,0,0,0,0,0,0,0,0,0,0,629,
625,0,0,0,0,0,0,0,0,0,0,0,0,0,629,
625,0,0,0,0,0,0,0,0,0,0,0,0,0,629,
722,723,723,723,723,723,674,0,0,676,723,723,723,723,724,
0,0,0,0,0,0,722,723,723,724,0,0,0,0,0
</data>
 </layer>
 <layer id="4" name="air" width="15" height="13">
  <data encoding="csv">
0,0,0,0,0,0,0,0,0,0,0,0,0,0,0,
0,0,0,0,0,0,0,0,0,0,0,0,0,0,0,
0,0,0,0,0,0,0,0,0,0,0,0,0,0,0,
0,0,0,0,0,0,0,0,0,0,0,0,0,0,0,
0,0,0,0,0,0,0,0,0,0,0,0,0,0,0,
0,0,0,0,0,0,0,0,0,0,0,0,0,0,0,
0,0,0,0,0,0,0,0,0,0,0,0,0,0,0,
0,0,0,0,0,0,0,0,0,0,0,0,0,0,0,
0,0,0,0,0,0,0,0,0,0,0,0,0,0,0,
0,0,0,0,0,0,0,0,0,0,0,0,0,0,0,
0,0,0,0,0,0,0,0,0,0,0,0,0,0,0,
0,0,0,0,0,0,0,0,0,0,0,0,0,0,0,
0,0,0,0,0,0,0,0,0,0,0,0,0,0,0
</data>
 </layer>
 <objectgroup id="5" name="objects">
  <object id="1" name="shopkeeper" type="npc" x="152" y="72" width="24" height="28">
   <properties>
    <property name="dialogue" value="shopkeeper"/>
   </properties>
  </object>
  <object id="2" name="shop-exit" type="exit" x="112" y="176" width="32" height="16">
   <properties>
    <property name="entry" value="shop-door"/>
    <property name="map" value="map"/>
   </properties>
  </object>
  <object id="3" name="entrance" type="entry" x="128" y="168">
   <point/>
  </object>
 </objectgroup>
</map>
